src/ClientApp/src/assets/code4Romania.svg

<svg width="285" height="88" viewBox="0 0 285 88" fill="none" xmlns="http://www.w3.org/2000/svg">
<g clip-path="url(#clip0)">
<path d="M34.9667 2.1123L22.5837 3.96265L0 44.0059L22.5837 83.9543L34.9667 85.8521L10.8648 44.0059L34.9667 2.1123Z" fill="#0000FA"/>
<path d="M66.6123 2.1123L78.9954 3.96265L101.579 44.0059L78.9954 83.9543L66.6123 85.8521L90.6667 44.0059L66.6123 2.1123Z" fill="#0000FA"/>
<path d="M34.9666 2.11198L50.7657 0.309082V44.0056H10.8647L34.9666 2.11198Z" fill="#F2F2FE"/>
<path d="M34.9666 85.8516L50.7657 87.607V44.0054H10.8647L34.9666 85.8516Z" fill="#D8D8FE"/>
<path d="M66.6124 85.8516L50.7659 87.607V44.0054H90.6668L66.6124 85.8516Z" fill="#B2B2FC"/>
<path d="M66.6124 2.11198L50.7659 0.309082V44.0056H90.6668L66.6124 2.11198Z" fill="#E5E5FE"/>
<path d="M142.619 37.1261C139.914 37.7903 137.115 38.1224 134.363 38.1224C132.371 38.2173 130.331 37.9326 128.433 37.2684C127.009 36.6991 125.776 35.6553 124.922 34.3268C124.02 32.9035 123.451 31.2904 123.119 29.6298C122.787 27.3999 122.645 25.1226 122.692 22.8452C122.692 17.1519 123.499 13.1665 125.112 10.9366C126.725 8.70671 129.666 7.52059 133.936 7.52059C136.878 7.56803 139.772 7.99504 142.619 8.75415L142.382 13.5461C140.009 13.1665 137.637 12.9293 135.265 12.8818C133.32 12.8818 131.991 13.1665 131.185 13.6884C130.378 14.2103 129.761 15.1117 129.382 16.5351C129.002 17.9584 128.717 20.3781 128.717 23.7941C128.717 27.2101 129.144 29.5824 129.951 30.9108C130.758 32.2867 132.371 32.856 134.743 32.856C137.305 32.856 139.867 32.6663 142.382 32.2867L142.619 37.1261ZM147.743 18.3854C149.308 16.3927 151.87 15.3964 155.429 15.3964C158.987 15.3964 161.549 16.3927 163.115 18.3854C164.681 20.3781 165.487 23.1773 165.487 26.7357C165.487 34.3743 162.118 38.1224 155.429 38.1224C148.739 38.1224 145.465 34.3268 145.465 26.7357C145.465 23.1299 146.225 20.3781 147.743 18.3854ZM152.297 31.6225C152.867 32.7137 153.958 33.1881 155.429 33.1881C156.9 33.1881 158.086 32.6663 158.655 31.6225C159.367 30.0568 159.651 28.3962 159.604 26.6882C159.699 25.0277 159.367 23.3671 158.655 21.8489C158.086 20.8525 156.994 20.2832 155.429 20.2832C154.195 20.1883 152.962 20.7576 152.297 21.8489C151.633 22.8452 151.349 24.5058 151.349 26.6882C151.349 28.8707 151.633 30.5312 152.297 31.6225ZM188.118 7.18848V37.6005H182.33V36.6516C180.717 37.5056 178.914 38.0275 177.064 38.0749C173.932 38.0749 171.702 37.2209 170.516 35.3706C169.283 33.5203 168.666 30.6736 168.666 26.6882C168.666 22.7029 169.378 19.9036 170.896 18.0533C172.414 16.203 174.596 15.349 177.68 15.349C178.961 15.3964 180.242 15.5387 181.523 15.776L182.377 16.0132V7.18848H188.118ZM181.713 32.3816L182.377 32.2393V20.8525C180.954 20.5679 179.531 20.4255 178.107 20.4255C175.735 20.4255 174.596 22.5131 174.596 26.6882C174.596 28.9181 174.834 30.5312 175.403 31.4801C175.877 32.429 176.921 32.9984 177.965 32.9035C179.246 32.9035 180.48 32.7137 181.713 32.3816ZM199.41 32.0969C200.217 32.7611 201.26 33.0933 202.352 33.0458C205.056 33.0458 207.428 32.9035 209.563 32.7611L210.797 32.6188V36.8888C207.855 37.6954 204.866 38.1224 201.83 38.1698C198.556 38.1698 196.136 37.2209 194.713 35.5129C193.29 33.8049 192.483 30.9582 192.483 27.0203C192.483 19.2394 195.614 15.349 202.019 15.349C208.424 15.349 211.508 18.6226 211.508 25.17L211.081 29.2502H198.319C198.224 30.3415 198.603 31.3853 199.41 32.0969ZM205.815 24.7904C205.815 23.0824 205.53 21.8489 204.961 21.1372C204.439 20.473 203.443 20.1409 202.114 20.1409C200.738 20.1409 199.742 20.5204 199.173 21.2321C198.603 21.9438 198.319 23.1773 198.224 24.7904H205.815ZM232.099 20.8525V37.6005H226.264V20.8525H223.986V15.8708H226.264V14.922C226.264 11.7906 226.786 9.6556 227.687 8.42204C228.636 7.18848 230.249 6.61914 232.669 6.61914C233.997 6.66659 235.326 6.80892 236.654 7.04614L237.603 7.18848V11.9804L234.377 11.8381C233.712 11.7906 233.048 12.0278 232.574 12.5497C232.242 13.3088 232.099 14.1628 232.147 14.9694V15.8234H237.413V20.8051L232.099 20.8525ZM241.778 18.3854C243.296 16.3927 245.858 15.3964 249.417 15.3964C252.975 15.3964 255.632 16.3927 257.103 18.3854C258.621 20.3781 259.475 23.1773 259.475 26.7357C259.475 34.3743 256.106 38.1224 249.417 38.1224C242.727 38.1224 239.453 34.3268 239.453 26.7357C239.453 23.1299 240.212 20.3781 241.778 18.3854ZM246.285 31.6225C246.855 32.7137 247.946 33.1881 249.417 33.1881C250.935 33.1881 252.074 32.6663 252.643 31.6225C253.212 30.5312 253.592 28.9181 253.592 26.6882C253.592 24.4583 253.307 22.8452 252.643 21.8489C251.979 20.8525 250.982 20.3306 249.417 20.3306C247.851 20.3306 246.855 20.8525 246.285 21.8489C245.716 22.8452 245.336 24.5058 245.336 26.6882C245.336 28.8707 245.621 30.5312 246.285 31.6225ZM263.65 37.6005V15.8708H269.438V18.2431C271.573 16.8672 273.945 15.9183 276.413 15.3964V21.2321C274.372 21.6591 272.332 22.181 270.34 22.7978L269.486 23.0824V37.6005H263.65ZM129.856 71.1913V81.1072H123.878V51.5492H135.36C142.334 51.5492 145.75 54.8229 145.75 61.3228C145.75 65.1658 144.327 68.0125 141.385 69.8154L145.608 81.1547H139.06L135.644 71.2388H129.856V71.1913ZM138.633 64.7388C139.345 63.7425 139.725 62.5089 139.63 61.2279C139.677 60.0418 139.298 58.8083 138.539 57.8594C137.732 56.9579 136.546 56.4835 135.312 56.5784H129.809V65.9724H135.36C136.593 66.1147 137.779 65.6403 138.633 64.7388ZM151.064 61.7498C152.63 59.8046 155.192 58.8083 158.75 58.8083C162.308 58.8083 164.965 59.8046 166.436 61.7498C167.954 63.6951 168.713 66.5417 168.713 70.1475C168.713 77.7861 165.44 81.5342 158.75 81.5342C152.06 81.5342 148.787 77.7387 148.787 70.1475C148.787 66.5417 149.593 63.7425 151.064 61.7498ZM155.571 75.0818C156.283 76.1256 157.516 76.7423 158.797 76.6474C160.363 76.6474 161.454 76.0781 162.024 75.0818C162.735 73.5161 163.02 71.8555 162.972 70.1475C163.067 68.4395 162.735 66.779 162.024 65.2133C161.454 64.2169 160.363 63.6951 158.797 63.6951C157.516 63.5527 156.33 64.1695 155.571 65.2133C155.002 66.3045 154.717 67.8702 154.717 70.1475C154.717 72.4249 155.002 74.038 155.571 75.0818ZM178.866 81.0598H173.031V59.3302H178.819V60.5637C180.337 59.5674 182.14 58.998 183.943 58.8557C186.315 58.8557 188.071 59.5199 189.352 60.8484C191.629 59.6148 194.144 58.9506 196.706 58.8557C199.552 58.8557 201.545 59.6623 202.684 61.3703C203.822 63.0783 204.344 65.6403 204.344 69.341V81.1072H198.509V69.4833C198.603 68.06 198.414 66.6841 197.939 65.3556C197.465 64.4542 196.516 63.9797 195.52 64.0746C194.381 64.1221 193.195 64.3118 192.104 64.644L191.439 64.8812C191.582 67.1111 191.677 68.7242 191.677 69.8629V81.1072H185.841V69.9103C185.888 68.3921 185.698 66.8264 185.271 65.3556C184.892 64.5016 184.038 64.0746 182.757 64.0746C181.618 64.0746 180.48 64.2644 179.388 64.644L178.866 64.8337V81.0598ZM226.121 66.1147V75.1767C226.121 75.6511 226.216 76.173 226.501 76.6C226.738 76.9796 227.118 77.1693 227.592 77.1693L227.45 81.5817C226.264 81.6291 225.078 81.5342 223.891 81.297C222.943 81.0598 222.041 80.6328 221.235 80.0635C219.242 81.0124 217.059 81.5342 214.829 81.5817C210.322 81.5817 208.045 79.2095 208.045 74.465C208.045 72.1402 208.709 70.4796 209.99 69.5307C211.224 68.5344 213.121 67.9651 215.684 67.8227L220.333 67.4432V66.0673C220.381 65.4031 220.191 64.7388 219.764 64.2169C219.194 63.8374 218.483 63.6476 217.771 63.6951L209.658 64.0746L209.421 59.9944C212.315 59.1878 215.256 58.7608 218.246 58.7134C221.092 58.7134 223.085 59.3776 224.318 60.5163C225.552 61.6549 226.121 63.5527 226.121 66.1147ZM216.348 71.903C214.687 72.0453 213.928 72.8993 213.928 74.465C213.928 76.0307 214.64 76.8847 216.063 76.8847C217.249 76.8372 218.483 76.6474 219.621 76.3153L220.286 76.173V71.5234L216.348 71.903ZM237.508 81.0598H231.672V59.3302H237.461V60.5637C239.074 59.5199 240.971 58.9506 242.869 58.8557C245.811 58.8557 247.804 59.7097 248.847 61.4177C249.986 63.1257 250.555 65.7826 250.555 69.2461V81.0598H244.72V69.4359C244.814 68.0125 244.577 66.6366 244.055 65.3082C243.628 64.4542 242.679 64.0272 241.398 64.0272C240.212 63.9797 239.074 64.1695 237.982 64.5965L237.461 64.8337L237.508 81.0598ZM255.679 56.5784V50.6478H261.515V56.5784H255.679ZM255.679 81.0598V59.3302H261.515V81.0598H255.679ZM283.577 66.1147V75.1767C283.577 75.6511 283.672 76.173 283.956 76.6C284.194 76.9796 284.573 77.1693 285.048 77.1693L284.905 81.5817C283.719 81.6291 282.533 81.5342 281.347 81.297C280.398 81.0598 279.449 80.6328 278.643 80.0635C276.65 81.0124 274.515 81.5342 272.285 81.5817C267.778 81.5817 265.5 79.2095 265.5 74.465C265.5 72.0928 266.165 70.4796 267.351 69.5307C268.584 68.5819 270.577 67.9651 273.139 67.8227L277.789 67.4432V66.0673C277.836 65.4031 277.646 64.7388 277.219 64.2169C276.65 63.8374 275.938 63.6476 275.227 63.6951L267.113 64.0746L266.876 59.9944C269.77 59.1878 272.712 58.7608 275.701 58.7134C278.548 58.7134 280.54 59.3776 281.774 60.5163C282.913 61.7024 283.577 63.5527 283.577 66.1147ZM273.803 71.903C272.143 72.0453 271.383 72.8993 271.383 74.465C271.383 76.0307 272.095 76.8847 273.471 76.8847C274.705 76.8372 275.938 76.6474 277.124 76.3153L277.789 76.173V71.5234L273.803 71.903Z" fill="black"/>
</g>
<defs>
<clipPath id="clip0">
<rect width="285" height="87.2507" fill="white" transform="translate(0 0.309082)"/>
</clipPath>
</defs>
</svg>

<svg width="285" height="88" fill="none" xmlns="http://www.w3.org/2000/svg"><g clip-path="url(#clip0)"><path d="M34.967 2.112l-12.383 1.85L0 44.007l22.584 39.948 12.383 1.898-24.102-41.846L34.967 2.112zM66.612 2.112l12.383 1.85 22.584 40.044-22.584 39.948-12.383 1.898 24.055-41.846L66.612 2.112z" fill="#0000FA"/><path d="M34.967 2.112L50.766.309v43.697H10.865L34.967 2.112z" fill="#F2F2FE"/><path d="M34.967 85.852l15.799 1.755V44.005H10.865l24.102 41.847z" fill="#D8D8FE"/><path d="M66.612 85.852l-15.846 1.755V44.005h39.9L66.613 85.852z" fill="#B2B2FC"/><path d="M66.612 2.112L50.766.309v43.697h39.9L66.613 2.112z" fill="#E5E5FE"/><path d="M142.619 37.126a34.786 34.786 0 01-8.256.996 15.789 15.789 0 01-5.93-.854c-1.424-.569-2.657-1.613-3.511-2.941-.902-1.423-1.471-3.037-1.803-4.697a40.478 40.478 0 01-.427-6.785c0-5.693.807-9.678 2.42-11.908 1.613-2.23 4.554-3.416 8.824-3.416 2.942.047 5.836.474 8.683 1.233l-.237 4.792c-2.373-.38-4.745-.617-7.117-.664-1.945 0-3.274.284-4.08.806-.807.522-1.424 1.424-1.803 2.847-.38 1.423-.665 3.843-.665 7.26 0 3.415.427 5.787 1.234 7.116.807 1.376 2.42 1.945 4.792 1.945 2.562 0 5.124-.19 7.639-.57l.237 4.84zm5.124-18.74c1.565-1.993 4.127-2.99 7.686-2.99 3.558 0 6.12.997 7.686 2.99 1.566 1.992 2.372 4.791 2.372 8.35 0 7.638-3.369 11.386-10.058 11.386-6.69 0-9.964-3.795-9.964-11.386 0-3.606.76-6.358 2.278-8.35zm4.554 13.236c.57 1.092 1.661 1.566 3.132 1.566s2.657-.522 3.226-1.566c.712-1.565.996-3.226.949-4.934a10.048 10.048 0 00-.949-4.84c-.569-.995-1.661-1.565-3.226-1.565-1.234-.095-2.467.475-3.132 1.566-.664.996-.948 2.657-.948 4.84 0 2.182.284 3.842.948 4.933zm35.821-24.434V37.6h-5.788v-.948c-1.613.854-3.416 1.376-5.266 1.423-3.132 0-5.362-.854-6.548-2.704-1.233-1.85-1.85-4.697-1.85-8.683 0-3.985.712-6.784 2.23-8.635 1.518-1.85 3.7-2.704 6.784-2.704a26.44 26.44 0 013.843.427l.854.237V7.188h5.741zm-6.405 25.194l.664-.143V20.853a21.721 21.721 0 00-4.27-.428c-2.372 0-3.511 2.088-3.511 6.263 0 2.23.238 3.843.807 4.792a2.63 2.63 0 002.562 1.424c1.281 0 2.515-.19 3.748-.522zm17.697-.285c.807.664 1.85.996 2.942.949 2.704 0 5.076-.142 7.211-.285l1.234-.142v4.27a35.9 35.9 0 01-8.967 1.28c-3.274 0-5.694-.948-7.117-2.656-1.423-1.708-2.23-4.555-2.23-8.493 0-7.78 3.131-11.671 9.536-11.671 6.405 0 9.489 3.274 9.489 9.821l-.427 4.08h-12.762c-.095 1.091.284 2.135 1.091 2.847zm6.405-7.307c0-1.708-.285-2.941-.854-3.653-.522-.664-1.518-.996-2.847-.996-1.376 0-2.372.38-2.941 1.091-.57.712-.854 1.945-.949 3.558h7.591zm26.284-3.938V37.6h-5.835V20.852h-2.278v-4.981h2.278v-.949c0-3.131.522-5.266 1.423-6.5.949-1.234 2.562-1.803 4.982-1.803a28.41 28.41 0 013.985.427l.949.142v4.792l-3.226-.142a2.2 2.2 0 00-1.803.712 5.333 5.333 0 00-.427 2.42v.853h5.266v4.982l-5.314.047zm9.679-2.467c1.518-1.992 4.08-2.989 7.639-2.989 3.558 0 6.215.997 7.686 2.99 1.518 1.992 2.372 4.791 2.372 8.35 0 7.638-3.369 11.386-10.058 11.386-6.69 0-9.964-3.795-9.964-11.386 0-3.606.759-6.358 2.325-8.35zm4.507 13.237c.57 1.092 1.661 1.566 3.132 1.566 1.518 0 2.657-.522 3.226-1.566.569-1.09.949-2.704.949-4.934s-.285-3.843-.949-4.84c-.664-.995-1.661-1.517-3.226-1.517-1.566 0-2.562.521-3.132 1.518-.569.996-.949 2.657-.949 4.84 0 2.182.285 3.842.949 4.933zM263.65 37.6V15.87h5.788v2.373a20.813 20.813 0 016.975-2.847v5.836a66.921 66.921 0 00-6.073 1.566l-.854.284V37.6h-5.836zM129.856 71.191v9.916h-5.978V51.55h11.482c6.974 0 10.39 3.274 10.39 9.774 0 3.843-1.423 6.69-4.365 8.492l4.223 11.34h-6.548l-3.416-9.916h-5.788v-.048zm8.777-6.452a5.358 5.358 0 00.997-3.511 5.133 5.133 0 00-1.091-3.369 3.911 3.911 0 00-3.227-1.28h-5.503v9.393h5.551c1.233.143 2.419-.332 3.273-1.233zm12.431-2.99c1.566-1.944 4.128-2.94 7.686-2.94s6.215.996 7.686 2.94c1.518 1.946 2.277 4.793 2.277 8.398 0 7.64-3.273 11.387-9.963 11.387-6.69 0-9.963-3.795-9.963-11.387 0-3.605.806-6.405 2.277-8.397zm4.507 13.333a3.606 3.606 0 003.226 1.565c1.566 0 2.657-.569 3.227-1.565.711-1.566.996-3.226.948-4.934.095-1.709-.237-3.369-.948-4.935-.57-.996-1.661-1.518-3.227-1.518-1.281-.142-2.467.474-3.226 1.518-.569 1.092-.854 2.657-.854 4.934 0 2.278.285 3.891.854 4.935zm23.295 5.978h-5.835V59.33h5.788v1.234c1.518-.997 3.321-1.566 5.124-1.708 2.372 0 4.128.664 5.409 1.992a16.708 16.708 0 017.354-1.992c2.846 0 4.839.806 5.978 2.514 1.138 1.708 1.66 4.27 1.66 7.971v11.766h-5.835V69.483c.094-1.423-.095-2.799-.57-4.127-.474-.902-1.423-1.376-2.419-1.281a13.9 13.9 0 00-3.416.569l-.665.237c.143 2.23.238 3.843.238 4.982v11.244h-5.836V69.91a14.838 14.838 0 00-.57-4.554c-.379-.854-1.233-1.281-2.514-1.281-1.139 0-2.277.19-3.369.569l-.522.19V81.06zm47.255-14.945v9.062c0 .474.095.996.38 1.423.237.38.617.57 1.091.57l-.142 4.412a15.035 15.035 0 01-3.559-.285 7.986 7.986 0 01-2.656-1.233 15.68 15.68 0 01-6.406 1.518c-4.507 0-6.784-2.372-6.784-7.117 0-2.325.664-3.985 1.945-4.934 1.234-.997 3.131-1.566 5.694-1.708l4.649-.38v-1.376a2.612 2.612 0 00-.569-1.85 3.235 3.235 0 00-1.993-.522l-8.113.38-.237-4.08a34.788 34.788 0 018.825-1.282c2.846 0 4.839.665 6.072 1.803 1.234 1.139 1.803 3.037 1.803 5.599zm-9.773 5.788c-1.661.142-2.42.996-2.42 2.562 0 1.566.712 2.42 2.135 2.42a15.05 15.05 0 003.558-.57l.665-.142v-4.65l-3.938.38zm21.16 9.157h-5.836V59.33h5.789v1.234c1.613-1.044 3.51-1.613 5.408-1.708 2.942 0 4.935.854 5.978 2.562 1.139 1.708 1.708 4.365 1.708 7.828V81.06h-5.835V69.436c.094-1.424-.143-2.8-.665-4.128-.427-.854-1.376-1.28-2.657-1.28a8.359 8.359 0 00-3.416.569l-.521.237.047 16.226zm18.171-24.482v-5.93h5.836v5.93h-5.836zm0 24.482V59.33h5.836v21.73h-5.836zm27.898-14.945v9.062c0 .474.095.996.379 1.423.238.38.617.57 1.092.57l-.143 4.412a15.023 15.023 0 01-3.558-.285 8.213 8.213 0 01-2.704-1.233 15.46 15.46 0 01-6.358 1.518c-4.507 0-6.785-2.372-6.785-7.117 0-2.372.665-3.985 1.851-4.934 1.233-.95 3.226-1.566 5.788-1.708l4.65-.38v-1.376a2.618 2.618 0 00-.57-1.85 3.232 3.232 0 00-1.992-.522l-8.114.38-.237-4.08a34.795 34.795 0 018.825-1.282c2.847 0 4.839.665 6.073 1.803 1.139 1.186 1.803 3.037 1.803 5.599zm-9.774 5.788c-1.66.142-2.42.996-2.42 2.562 0 1.566.712 2.42 2.088 2.42a15.842 15.842 0 003.653-.57l.665-.142v-4.65l-3.986.38z" fill="#000"/></g><defs><clipPath id="clip0"><path fill="#fff" transform="translate(0 .31)" d="M0 0h285v87.251H0z"/></clipPath></defs></svg>
